!!!!SEGMENT: pl-wtm--a-33-688-83_rozycki-ludomir--tance-polskie-op-37-i.krn
!!!cenid: 19xx:140
!!!COM: Różycki, Ludomir
!!!COM-rismID: pe50045573
!!!CDT: 1883-1953
!!!CNT: Polish
!!!OTL: Tańce Polskie op. 37/I.
!!!PDT: 1916
!!!AGN:
!!!YEC: Copyright 2022 Narodowy Instytut Fryderyka Chopina (https://polishscores.org)
!!!YEM: License CC-BY-4.0 (https://creativecommons.org/licenses/by/4.0)
!!!SMS-siglum: PL-Wtm
!!!SMS-shelfmark: A.33.688/83
!!!SMS-variant:
!!!SMS-altvar:
!!!SMS-shelfwork: W
!!!NIFC-rismSourceID: 1001191572
!!!NIFC-rismChildID: 1001191572
!!!NIFC-islandoraID: pl-wtm:64824
!!!URL-pdf-islandora: https://repozytorium.nifc.pl/islandora/object/pl-wtm%3A64824/datastream/PDF/view
!!!URL-scan: https://polish.musicsources.pl/pl/lokalizacje/galeria/druki-muzyczne/21114/3 @EN{Scan on Polish Music Sources Website} @PL{Skany w portalu Dziedzictwo Muzyki Polskiej w otwartym dostępie}
!!!IIIF:
!!!ONB-nifc:
!!!AIN: 1 piano
!!!key: d
**kern	**fing	**kern	**fing	**dynam
*part1	*	*part1	*	*part1
*staff2	*	*staff1	*	*staff1/2
*group1	*	*group1	*	*
*ICklav	*	*ICklav	*	*
*Ipiano	*	*Ipiano	*	*
*I"[Pianoforte]	*	*I"[Pianoforte]	*	*
*clefF4	*	*clefG2	*	*
*k[b-]	*	*k[b-]	*	*
*d:	*	*d:	*	*
*M3/4	*	*M3/4	*	*
=1	=1	=1	=1	=1
*	*below	*	*	*
!!LO:TX:a:B:t=Allegro moderato molto espressivo. M.M. [quarter]=152.
!	!	!	!	!LO:DY:a=2:t=%s rubato
(8F\L	4	(8f/L	2	mf <
8A\)	2	8a/)	4	.
.	.	.	.	[
(8A\	2	(8a/	4	>
8E\	5	8e/	1	] <
8F\	4	8f/	2	.
8A\J	2	8a/J	4	.
=2	=2	=2	=2	=2
*ped	*	*	*	*
!!LO:TX:a:i:t=rit.
2.Bn\)	1	2.bn/)	5	[
*Xped	*	*	*	*
=3	=3	=3	=3	=3
!!LO:TX:a:i:t=a tempo
(8F\L	4	(8f/L	2	<
8A\)	2	8a/)	4	[
(8A\	2	(8a/	4	>
8E\	5	8e/	1	]<
8G\	2	8g/	4	.
8E-X\J	4	8e-X/J	2	[[
!!LO:LB:g=original
=4	=4	=4	=4	=4
!!LO:TX:a:i:t=rit.
4.D\	5	4.d/	1	<
8F\L	4	8f/L	2	.
8A\	2	8a/	4	.
8Bn\J)	1	8bn/J)	5	[
=5	=5	=5	=5	=5
!!LO:TX:a:i:t=a tempo
(8A\L	2	(8a/L	4	.
8E\)	5	8e/)	1	>
(8E\	4	(8e/	2	.
8G\	2	8g/	4	.
8G\	2	8g/	4	.
8E-X\J	4	8e-X/J	2	]]
=6	=6	=6	=6	=6
!!LO:TX:a:i:t=rit.
4.D\)	5	4.d/)	1	<
*	*	*	*below	*
!!LO:TX:a:i:t=a tempo
(8F\L	5	(8f/L	1	.
8A\	3	8a/	2	.
8Bn\J	2	8bn/J	3	[
!!LO:LB:g=original
=7	=7	=7	=7	=7
*	*	*	*	*^
*	*	*	*above	*	*
!	!	!LO:TX:b:i:t=cresc.-poco-a-poco:ext=s:problem:text with extention lines	!	!	!LO:HP:a=2
(8d\L)	1	(8dd\L)	5	>	<
8c#X\J	2	8cc#X\J	4	.	.
4A\)	4	4a/)	2	]	.
(8A\L	.	(8a/L	.	<	.
8Bn\J	.	8bn/J	.	.	[
=8	=8	=8	=8	=8	=8
8d\L	.	8dd\L	.	.	.
.	.	.	.	[	.
8c#X\J	.	8cc#X\J	.	>	.
4A\)	.	4a/)	.	]	.
!!LO:TX:a:i:t=rit.
(8A~\L	2	(8a~/L	4	.	.
8Bn~\J)	1	8bn~/J)	5	.	.
*	*	*	*	*v	*v
=9	=9	=9	=9	=9
!!LO:TX:a:i:t=a tempo, accel.
(8A\L	2	(8a/L	4	.
8G#X\	3	8g#X/	3	.
8E\	5	8e/	1	.
8Gn\	2	8gn/	4	.
8F\	3	8f/	3	.
8E-X\J	5	8e-X/J	2	.
!!LO:LB:g=original
=10	=10	=10	=10	=10
!!LO:TX:a:i:t=rit.
4.D\)	5	4.d/)	1	.
.	.	.	.	<
!!LO:TX:a:i:t=a tempo
(8F\L	4	(8f/L	2	.
8A\	.	8a/	.	.
8Bn\J	.	8bn/J	.	[
=11	=11	=11	=11	=11
!!LO:TX:a:i:t=accel.
8A\L	.	8a/L	.	>
8G#X\	.	8g#X/	.	.
8E\	.	8e/	.	.
8Gn\	.	8gn/	.	.
8F\	.	8f/	.	.
8E-X\J	.	8e-X/J	.	]]
=12	=12	=12	=12	=12
4.D\)	.	4.d/)	.	.
.	.	.	.	<
*	*	*	*below	*
(8F\L	5	(8f/L	1	.
8A\	3	8a/	2	.
8Bn\J	2	8bn/J	3	[[
!!LO:PB:g=original
=13	=13	=13	=13	=13
*	*	*	*above	*
8d\L	1	8dd\L	5	f
8c#X\	2	8cc#X\	4	.
8A\	4	8a\	2	.
8cn\	2	8ccn\	4	.
8Bn\	3	8bn\	3	.
8G\J	5	8g\J	1	.
=14	=14	=14	=14	=14
8B-X\L	2	8b-X/L	4	>
8A\	3	8a/	3	.
8F\	1	8f/	1	.
8E-X\	2	8e-X/	4	.
8C#X\	3	8c#X/	3	.
8AA\J)	5	8A/J)	2	.
.	.	.	.	]
*	*	*clefF4	*	*
=15	=15	=15	=15	=15
*^	*	*	*	*
!	!	!	!	!	!LO:DY:a=2:t=%s misterioso
2.AA/	(2CC#X\	1 3	(8F\L	1	p <
.	.	.	8A\	3	.
.	.	.	.	.	[
.	.	.	8A\	4	>
.	.	.	8E\	.	.
.	4AAA\)	5	8F\	.	.
.	.	.	8A\J	.	.
.	.	.	.	.	]
!!LO:LB:g=original
=16	=16	=16	=16	=16	=16
*	*	*	*^	*	*
2.AA/	(8EE-X\L	2	2Bn~/	2.G\	3 5	.
.	8CC#X\	3	.	.	.	.
.	8AAA\	5	.	.	.	.
.	8EE-\	.	.	.	.	.
.	8CC#\	.	4B~/)	.	.	.
.	8AAA\J)	.	.	.	.	.
*	*	*	*v	*v	*	*
=17	=17	=17	=17	=17	=17
2.AA/	(2CC#X\	.	(8F\L	2	<
.	.	.	8A\	4	.
.	.	.	.	.	[
.	.	.	8A\	.	>
.	.	.	8E\	.	.
.	4AAA\)	.	8G\	4	.
.	.	.	8E-X\J	2	.
.	.	.	.	.	]
=18	=18	=18	=18	=18	=18
2.AA/	(8FF\L	2	4.D\)	1	.
.	8DD\	3	.	.	.
.	8AAA\	5	.	.	.
.	8FF\	.	(8F\L	2	.
.	8DD\	.	8A\	.	.
.	8AAA\J)	.	8Bn\J	.	.
!!LO:LB:g=original
=19	=19	=19	=19	=19	=19
2.AA/	(2CC#X\	.	8A\L	4	.
.	.	.	8E\	1	.
.	.	.	8E\	2	.
.	.	.	.	.	>
.	.	.	8G\	4	.
.	4AAA\)	.	8G\	4	.
.	.	.	8E-X\J	2	]]
=20	=20	=20	=20	=20	=20
[2.AA/	(8EE-X\L	.	2C#X/)	1	pp
.	8CC#X\	.	.	.	.
.	8AAA\	.	.	.	.
.	8GG\	.	.	.	.
.	8EE-\	.	[4C#~/	.	.
.	8AAA\J)	.	.	.	.
=21	=21	=21	=21	=21	=21
2.AA/]	(8EE-X\L	.	2C#/]	.	.
.	8CC#X\	.	.	.	.
.	8AAA\	.	.	.	.
.	8GG\	.	.	.	.
.	8EE-\	.	4C#X~/	.	.
.	8AAA\J)	.	.	.	.
=22	=22	=22	=22	=22	=22
!	!	!	!LO:TX:b:i:t=poco-a-poco-rit.:dur=4q:ext=s:problem:text with extention lines	!	!
2.AA/	(8EE-X\L	.	2.C#X~/	.	.
.	8CC#X\J	.	.	.	.
.	2AAA\)	.	.	.	.
!!LO:LB:g=original
=23	=23	=23	=23	=23	=23
2.AA/	(8EE-X\L	.	2.C#X~/	.	.
.	8CC#X\J	.	.	.	.
.	2AAA\)	.	.	.	.
=24	=24	=24	=24	=24	=24
[2.AA/	(2BBB-\	.	[2.d [2.D^\	.	pp
.	4AAA\	.	.	.	.
=25	=25	=25	=25	=25	=25
2.AA/]	4BBB-\	2	2.d] 2.D\]	.	.
.	4AAA\	3	.	.	.
.	4FFF\)	4	.	.	.
*v	*v	*	*	*	*
*	*	*clefG2	*	*
=26	=26	=26	=26	=26
*ped	*	*	*	*
!!LO:TX:a:B:t=Poco più mosso. [half-dot]=66.
4DD 4DDD~/	.	4r	.	.
4r	.	(>4g 4c#X 4G'/	.	.
*Xped	*	*	*	*
4r	.	4f 4c# 4G'/)	.	.
=27	=27	=27	=27	=27
*ped	*	*	*	*
4AA 4DD~/	.	4r	.	.
4r	.	(>4g 4c#X 4G'/	.	.
*Xped	*	*	*	*
4r	.	4f 4c# 4G'/)	.	.
!!LO:PB:g=original
=28	=28	=28	=28	=28
*	*	*^	*	*
*ped	*	*	*	*	*
4AA 4DD/	.	(8ff/L	4re	3	mf
.	.	8aa/)	.	5	.
(4g 4c#X 4G\	.	(8aa/	&(2a\	5	.
.	.	8ee/	.	2	.
4f 4c# 4G\)	.	8ff/	.	3	.
.	.	8aa/J	.	5	.
*Xped	*	*	*	*	*
*	*	*v	*v	*	*
=29	=29	=29	=29	=29
4AA 4DD/	.	2bbn 2bn~\&)	5	.
(4g 4d 4A\	.	.	.	.
4f 4d 4A\)	.	4bb 4b~\)	.	.
=30	=30	=30	=30	=30
*	*	*^	*	*
4AA 4DD/	.	(8ff/L	4re	.	.
.	.	8aa/	.	.	.
(4g 4c#X 4G\	.	8aa/	2a\	.	.
.	.	8ee/	.	.	.
4f 4c# 4G\)	.	8gg/	.	5	.
.	.	8ee-X/J	.	3	.
=31	=31	=31	=31	=31	=31
4AA 4DD/	.	2dd/)	(8f\L	1 4	<
.	.	.	8a\J	2	.
(4g 4d 4A\	.	.	[2bn\)	1	[
!	!	!	!	!	!LO:HP:a
4f 4d 4A\)	.	(12ff/L	.	2	<
.	.	12aa/	.	.	.
.	.	12bbn/J	.	.	[[
!!LO:LB:g=original
=32	=32	=32	=32	=32	=32
4AA 4DD/	.	8aa/L	2b\]	4	.
.	.	8ee/	.	2	.
(4g 4c#X 4G\	.	8ee/	.	3	.
.	.	8gg/	.	5	.
4f 4c# 4G\)	.	8gg/	4b-X\	5	.
.	.	8ee-X/J	.	3	.
=33	=33	=33	=33	=33	=33
4AA 4DD/	.	4.dd/)	(8f\L	4	.
.	.	.	8a\J	.	.
(4g 4d 4A\	.	.	[2bn\)	.	.
.	.	(8ff/L	.	.	.
4f 4d 4A\)	.	8aa/	.	.	.
.	.	8bbn/J	.	.	.
=34	=34	=34	=34	=34	=34
4AA 4DD/	.	8aa/L	2b\]	.	.
.	.	8ee/	.	.	.
(4g 4c#X 4G\	.	8ee/	.	.	.
.	.	8gg/	.	.	.
4f 4c# 4G\)	.	8gg/	4b-X\	5	.
.	.	8ee-X/J	.	3	.
!!LO:LB:g=original
=35	=35	=35	=35	=35	=35
4AA 4DD/	.	4.dd/)	(8f\L	4	.
.	.	.	8a\J	.	.
(4g 4d 4A\	.	.	2bn\)	.	.
.	.	(8ff/L	.	2	<
4f 4d 4A\)	.	8aa/	.	3	.
.	.	8bbn/J)	.	4	[
=36	=36	=36	=36	=36	=36
4AA 4DD/	.	(8ddd^/L	4dd\	5	f
.	.	8ccc#X/J)	.	4	.
(4g 4d 4A\	.	4aa^/	4dd\	2	.
4f 4d 4A\)	.	(8aa^/L	4dd\	.	.
.	.	8bbn/J)	.	.	.
=37	=37	=37	=37	=37	=37
4AA 4DD/	.	(8ddd^/L	4dd\	.	.
.	.	8ccc#X/J)	.	.	.
(4g 4d 4A\	.	4aa^/	4dd\	.	.
4f 4d 4A\)	.	(8aa^/L	4dd\	4	.
.	.	8bbn/J)	.	5	.
=38	=38	=38	=38	=38	=38
4AA 4DD/	.	(8aa/L	2.a\	4	.
.	.	8ee/	.	2	>
(4g 4c#X 4G\	.	8ee/	.	3	.
.	.	8gg/	.	5	.
4f 4c# 4G\)	.	8gg/	.	5	.
.	.	8ee-X/J	.	3	]
!!LO:LB:g=original
=39	=39	=39	=39	=39	=39
*	*	*	*	*^	*
4AA 4DD/	.	4.dd/)	(8f\L	4	1	.
.	.	.	8a\J	.	2	.
(4g 4d 4A\	.	.	[2bn\)	.	1	.
.	.	(8ff/L	.	.	.	.
4f 4d 4A\)	.	8aa/	.	.	.	.
.	.	8bbn/J	.	.	.	.
*	*	*	*	*v	*v	*
=40	=40	=40	=40	=40	=40
4AA 4DD/	.	8aa/L	2b\]	.	.
.	.	8ee/	.	.	.
(4g 4c#X 4G\	.	8ee/	.	.	.
.	.	8gg/	.	.	.
4f 4c# 4G\)	.	8gg/	4b-X~\	.	.
.	.	8ee-X/J	.	.	.
=41	=41	=41	=41	=41	=41
4AA 4DD/	.	4.dd/)	(8f\L	.	.
.	.	.	8a\J	.	.
(4g 4d 4A\	.	.	2bn\)	.	.
.	.	.	.	.	<
.	.	(8ff/L	.	.	.
4f 4d 4A\)	.	8aa/	.	.	.
.	.	8bb-/J)	.	.	.
.	.	.	.	.	[
=42	=42	=42	=42	=42	=42
4AA 4DD/	.	(8ddd^/L	2dd\	.	f
!	!	!LO:TX:b:i:t=cresc.-:ext=cd:problem:text with extention lines	!	!	!
.	.	.	.	.	<
.	.	8ccc#X/J)	.	.	.
(4g 4d 4A\	.	4aa^/	.	.	.
4f 4d 4A\)	.	(8aa^/L	4dd\	.	.
.	.	8bbn/J)	.	.	.
!!LO:LB:g=original
=43	=43	=43	=43	=43	=43
4AA 4DD/	.	(8ddd^/L	2dd\	.	.
.	.	8ccc#X/J)	.	.	.
(4g 4d 4A\	.	4aa^/	.	.	.
4f 4d 4A\)	.	(8aa^/L	4dd\	.	.
.	.	8bbn/J)	.	.	.
*	*	*v	*v	*	*
=44	=44	=44	=44	=44
*^	*	*	*	*
4AA 4DD/	4ryy	.	(8dddL 8dd\	5	.
.	.	.	8ccc#X 8cc#X\)	4	.
*	*	*above	*	*	*
(8g/L	4d 4A\	1	(8eee 8ee\	5	.
8f/J	.	2	8dddJ 8dd\)	4	.
4a/)	4d 4A\	1	4fff 4ff^\	.	[[
=45	=45	=45	=45	=45	=45
*ped	*	*	*	*	*
4GG 4GGG/	4ryy	.	(4.aaa 4.aa\	.	ff
*	*	*below	*	*	*
(4.e 4.c#X/	2Bn 2F\	1 2 3 5	.	.	.
.	.	.	8eeeL 8ee\)	.	.
.	.	.	(8eee 8ee\	4	.
8f 8d/)	.	1 2	8fffJ 8ff\)	5	.
*v	*v	*	*	*	*
=46	=46	=46	=46	=46
2.a: 2.f: 2.Bn: 2.F:\	2 1 3 5	(8fffL 8ff\	5	.
.	.	8ccc#X 8cc#X\)	4	.
.	.	(8ccc# 8cc#\	4	.
*Xped	*	*	*	*
.	.	8ddd 8dd\)	5	.
.	.	(8ddd 8dd\	5	.
.	.	8bbnJ 8bn\)	4	.
!!LO:PB:g=original
=47	=47	=47	=47	=47
*^	*	*	*	*
*ped	*	*	*	*	*
!!LO:TX:a:B:t=Allegro. [half-dot]=80.
4E 4AA/	4ryy	.	4.a~/	1	mf
(4e 4c/	2A\	1 3 5	.	.	.
.	.	.	(8a\L	1	<
*Xped	*	*	*	*	*
4f#X 4d 4Bn/)	.	1 2 4	8bn\	2	.
.	.	.	8dd\J	4	.
.	.	.	.	.	[
=48	=48	=48	=48	=48	=48
*ped	*	*	*	*	*
4E 4AA/	4ryy	.	8cc^\L	3	>
.	.	.	8bn\J	2	.
(4e 4c/	2A\	.	4a/)	1	]
*Xped	*	*	*	*	*
4f#X 4d 4Bn/)	.	.	(8b\L	.	<
.	.	.	8dd\J	.	[[
=49	=49	=49	=49	=49	=49
*ped	*	*	*	*	*
4E 4AA/	4ryy	.	8cc^\L	.	>
.	.	.	8bn\J	.	.
(4e 4c/	2A\	.	4a/	.	]
*Xped	*	*	*	*	*
4f#X 4d 4Bn/)	.	.	8b\L	.	<
.	.	.	8dd\J	.	[[
=50	=50	=50	=50	=50	=50
*	*	*	*^	*	*
*ped	*	*	*	*	*	*
4E 4AA/	4ryy	.	2.ee^/)	4.e\	.	.
(4e 4c/	2A\	.	.	.	.	.
.	.	.	.	8e'\L	.	.
*Xped	*	*	*	*	*	*
4f#X 4d 4Bn/)	.	.	.	8e'\	.	.
.	.	.	.	8e'\J	.	.
*	*	*	*v	*v	*	*
!!LO:LB:g=original
=51	=51	=51	=51	=51	=51
*ped	*	*	*	*	*
4E 4AA/	4ryy	.	(4.a/	2	.
(4e 4c/	2A\	.	.	.	<
.	.	.	8a\L	1	.
*Xped	*	*	*	*	*
4f#X 4d 4Bn/)	.	.	8bn\	.	.
.	.	.	8dd\J	.	.
.	.	.	.	.	[
=52	=52	=52	=52	=52	=52
*ped	*	*	*	*	*
4E 4AA/	4ryy	.	8cc^\L	.	>
.	.	.	8bn\J	.	.
(4e 4c/	2A\	.	4a/)	.	]
*Xped	*	*	*	*	*
4f#X 4d 4Bn/)	.	.	(8b\L	.	<
.	.	.	8dd\J	.	[[
=53	=53	=53	=53	=53	=53
*ped	*	*	*	*	*
4E 4AA/	4ryy	.	8cc^\L	.	>
.	.	.	8bn\J	.	.
(4e 4c/	2A\	.	4a/	.	]
*Xped	*	*	*	*	*
4f#X 4d 4Bn/)	.	.	8b\L	.	<
.	.	.	8dd\J	.	[[
=54	=54	=54	=54	=54	=54
*	*	*	*^	*	*
*ped	*	*	*	*	*	*
4E 4AA/	4ryy	.	2.ee^/)	4.e\	.	.
4e 4c#X/	2A\	.	.	.	.	.
.	.	.	.	8e'\L	.	.
*Xped	*	*	*	*	*	*
4f#X 4d 4Bn/	.	.	.	8e'\	.	.
.	.	.	.	8e'\J	.	.
*v	*v	*	*	*	*	*
*	*	*v	*v	*	*
!!LO:LB:g=original
=55	=55	=55	=55	=55
*ped	*	*	*	*
!!LO:TX:a:i:t=rit.
4AA 4AAA/	.	(8ee\L	2	f
.	.	8gg\)	4	.
4g 4d 4Bn 4A~\	.	(8gg;\	4	.
!!LO:TX:a:i:t=a tempo
.	.	8ff#X\)	.	.
4g 4d 4B 4A~\	.	(8ff#\	.	.
.	.	8gg\J)	.	.
*Xped	*	*	*	*
=56	=56	=56	=56	=56
*ped	*	*	*	*
4AA 4AAA/	.	(8ee\L	2	.
.	.	8dd\J	1	.
4e 4A 4E~\	.	4.cc#X\)	3	.
4e 4A 4E~\	.	.	.	.
.	.	(8cc#\	4	.
*Xped	*	*	*	*
=57	=57	=57	=57	=57
*ped	*	*	*	*
4AA 4AAA/	.	8bn/L	.	.
.	.	8a/J	.	.
4d 4Bn 4E~\	.	4g/	.	.
4d 4B 4E~\	.	8a/L	.	.
.	.	8b/J	.	.
*Xped	*	*	*	*
=58	=58	=58	=58	=58
*	*	*^	*	*
*ped	*	*	*	*	*
4AA 4AAA/	.	2.ee/)	(4.cc#X\	4 5	.
4e 4A 4E~\	.	.	.	.	.
.	.	.	8bn\L	2	.
4e 4A 4E~\	.	.	8cc#\	3	.
.	.	.	8b\J)	1	.
*Xped	*	*	*	*	*
*	*	*v	*v	*	*
!!LO:LB:g=original
=59	=59	=59	=59	=59
*ped	*	*	*	*
4AA 4AAA/	.	(8ee\L	2	.
.	.	8gg\)	.	.
4g 4d 4Bn 4A~\	.	(8gg\	.	.
.	.	8ff#X\)	.	.
4g 4d 4B 4A~\	.	(8ff#\	.	.
.	.	8gg\J)	.	.
*Xped	*	*	*	*
=60	=60	=60	=60	=60
*ped	*	*	*	*
4AA 4AAA/	.	(8ee\L	.	.
.	.	8dd\J	.	.
4e 4A 4E~\	.	4.cc#X\)	.	.
4e 4A 4E~\	.	.	.	.
.	.	(8cc#\	.	.
*Xped	*	*	*	*
=61	=61	=61	=61	=61
*ped	*	*	*	*
4AA 4AAA/	.	8bn/L	.	>
.	.	8a/J	.	.
4d 4Bn 4E~\	.	4g/	.	]
4d 4B 4E~\	.	8a/L	.	<
.	.	8b/J	.	[[
*Xped	*	*	*	*
=62	=62	=62	=62	=62
*ped	*	*	*	*
4AA 4AAA/	.	8eeL 8cc#X\	.	>
.	.	8bn\J	.	.
4e 4A 4E~\	.	2a/)	.	]
4e 4A 4E~\	.	.	.	.
*Xped	*	*	*	*
!!LO:LB:g=original
=63	=63	=63	=63	=63
*ped	*	*	*	*
!	!	!LO:TX:b:i:t=rit.:dur=4e:ext=ud:problem:text with extention lines	!	!LO:DY:rj
4AA 4AAA/	.	8eeeL 8ee^\	5	ff <
.	.	8fff#X 8ff#X^\	4	.
4g 4d 4Bn 4A~\	.	8ggg 8gg^\	.	.
.	.	8aaa 8aa^\	.	.
4g 4d 4B 4A~\	.	(8bbbn 8bbn^\	.	.
.	.	8gggJ 8gg\)	.	[[
*Xped	*	*	*	*
=64	=64	=64	=64	=64
*	*	*^	*	*
*ped	*	*	*	*	*
4AA 4AAA/	.	&(8eeeL 8ee\	4ryy	.	.
.	.	8dddJ 8dd\	.	.	.
4e 4c#X 4A 4E~\	.	(8aa/L	4ccc#X 4cc#X\&)	.	.
.	.	8gg#X/)	.	.	.
4e 4c# 4A 4E~\	.	(8aa/	4ccc# 4cc#\	.	.
.	.	8gg#/J)	.	.	.
*Xped	*	*	*	*	*
=65	=65	=65	=65	=65	=65
*ped	*	*	*	*	*
4AA 4AAA/	.	4dd/	(>8bbnL 8bn\	.	.
.	.	.	8aaJ 8a\	.	.
4d 4Bn 4E~\	.	2dd/	4ggn 4gn\)	.	.
4d 4B 4E~\	.	.	(>8aaL 8a\	.	.
.	.	.	8bbJ 8b\)	.	.
*Xped	*	*	*	*	*
=66	=66	=66	=66	=66	=66
*^	*	*	*	*	*
*ped	*	*	*	*	*	*
4AA 4AAA/	4ryy	.	4ee/	(>8ccc#XL 8cc#X\	.	.
.	.	.	.	8bbnJ 8bn\	.	.
*	*	*above	*	*	*	*
(8c#X/L	4E\	1	2ee/	2aa 2a\)	.	.
8Bn/J	.	2	.	.	.	.
4A/)	4E\	3	.	.	.	.
*Xped	*	*	*	*	*	*
*v	*v	*	*	*	*	*
!!LO:PB:g=original
=67	=67	=67	=67	=67	=67
!!LO:TX:a:B:t=Presto. [half-dot]=88.
!	!	!	!	!	!LO:DY:t=%s subito
4c#X 4G#X 4C#X'\	.	(8ee/L	4g#X 4e'\	5	p
.	.	8dd#X/	.	4	.
4c# 4G# 4C#'\	.	8ee/	4g# 4e'\	5	.
.	.	8dd#/	.	4	.
4A#X: 4C#X: 4FF#X:/	.	8cc#X/	4g# 4e'\	3	.
.	.	8dd#/J	.	4	.
=68	=68	=68	=68	=68	=68
!	!	!LO:TX:b:i:t=leggiero	!	!	!
4c#X 4G#X 4C#X'\	.	8ee/L	4g#X 4e'\	.	.
.	.	8dd#X/	.	.	.
4c# 4G# 4C#'\	.	8ee/	4g# 4e'\	.	.
.	.	8dd#/	.	.	.
4A#X: 4C#: 4FF#X:/	.	8cc#X/	4g# 4e'\	.	.
.	.	8dd#/J)	.	.	.
=69	=69	=69	=69	=69	=69
4c#X 4G#X 4C#X'\	.	(8ee/L	4g#X 4e'\	.	.
.	.	8dd#X/	.	.	.
4c# 4G# 4C#'\	.	8cc#X/)	4g# 4e'\	.	.
.	.	8rdd	.	.	.
4A#X: 4C#: 4FF#X:/	.	(8cc#/	4g# 4e'\	3	.
.	.	8dd#/J	.	4	.
=70	=70	=70	=70	=70	=70
4Bn 4F#X 4BBn'\	.	8dd#X/L	4f#X 4d#X'\	5	.
.	.	8cc#X/J	.	.	.
4B 4F# 4BB'\	.	2bn/)	4f# 4d#'\	.	.
4B 4F# 4BB'\	.	.	4f# 4d#'\	.	.
!!LO:LB:g=original
=71	=71	=71	=71	=71	=71
4Bn 4F#X 4BBn'\	.	(8dd/L	4f#X 4d\	.	.
.	.	8cc#X/	.	.	.
4B 4F# 4BB'\	.	8dd/	4f# 4d\	.	.
.	.	8cc#/	.	.	.
4G#X: 4BB: 4EE'>:/	.	8bn/	4f# 4d\	.	.
.	.	8cc#/J	.	.	.
=72	=72	=72	=72	=72	=72
4Bn 4F#X 4BBn'\	.	8dd/L	4f#X 4d\	.	.
.	.	8cc#X/	.	.	.
4B 4F# 4BB'\	.	8dd/	4f# 4d\	.	.
.	.	8cc#/	.	.	.
4G#X: 4BB: 4EE'>:/	.	8bn/	4f# 4d\	.	.
.	.	8cc#/J)	.	.	.
=73	=73	=73	=73	=73	=73
4Bn 4F#X 4BBn'\	.	(8dd/L	4f#X 4d\	.	.
.	.	8cc#X/J	.	.	.
4B 4F# 4BB'\	.	4bn/)	4f# 4d\	.	.
4G#X: 4BB: 4EE'>:/	.	(8b/L	4f# 4d\	.	.
.	.	8cc#/J)	.	.	.
=74	=74	=74	=74	=74	=74
4A 4E 4AA'\	.	(8cc#X/L	4e 4c#X\	.	.
.	.	8bn/J	.	.	.
4A 4E 4AA'\	.	2a/)	4e 4c#\	.	.
4A 4E 4AA'\	.	.	4e 4c#\	.	.
!!LO:LB:g=original
=75	=75	=75	=75	=75	=75
*^	*	*	*	*	*
!	!	!	!LO:TX:t=P:problem:- w nawiasie (cue size)	!	!	!
(4.E/	2.AA\	.	(8b-X/L	2.d\	5	mf
.	.	.	8a/J	.	4	.
.	.	.	2g/)	.	3	.
8G/L	.	1	.	.	.	.
8F/	.	2	.	.	.	.
8E/J	.	1	.	.	.	.
=76	=76	=76	=76	=76	=76	=76
2.E-X/)	4AA'\	2	(4.a/	2.c#X\	1 4	p
.	4AA'\	.	.	.	.	.
.	.	.	8g/L	.	3	.
.	4AA'\	.	8a/	.	.	.
.	.	.	8g/J)	.	.	.
=77	=77	=77	=77	=77	=77	=77
(4.En/	2.AA\	2	(8b-/L	2.d\	.	mf
.	.	.	8a/J	.	.	.
.	.	.	2g/)	.	.	>
8G/L	.	.	.	.	.	.
8F/	.	.	.	.	.	.
8E/J	.	.	.	.	.	]
=78	=78	=78	=78	=78	=78	=78
2.E-X/)	4AA'\	.	(4.a/	2.c#X\	.	p
.	4AA'\	.	.	.	.	.
!	!	!	!LO:TX:b:i:t=dim.-e-rit.-poco-a-poco:dur=11e:ext=s:problem:text with extention lines	!	!	!
.	.	.	8g/L	.	.	.
.	4AA'\	.	8a/	.	.	.
.	.	.	8g/J)	.	.	.
!!LO:LB:g=original
=79	=79	=79	=79	=79	=79	=79
2.E-X/	4GG'\	.	(4.a/	2.cn\	.	.
.	4GG'\	.	.	.	.	.
.	.	.	8g/L	.	.	.
.	4GG'\	.	8a/	.	.	.
.	.	.	8g/J)	.	.	.
=80	=80	=80	=80	=80	=80	=80
2.E-X/	4FF'\	.	(4.a/	2.c\	.	.
.	4FF'\	.	.	.	.	.
.	.	.	8g/L	.	.	.
.	4FF'\	.	8a/	.	.	.
.	.	.	8g/J	.	.	.
*v	*v	*	*	*	*	*
*	*	*v	*v	*	*
=81	=81	=81	=81	=81
*ped	*	*	*	*
2.G 2.C#X 2.AA 2.EE-X;/	.	2.a 2.g 2.c#X 2.A;/)	.	ppp
*Xped	*	*	*	*
=82	=82	=82	=82	=82
*	*	*^	*	*
*ped	*	*	*	*	*
!!LO:TX:a:B:t=Tempo I.
4AA 4DD/	.	(8ff/L	4re	3	mf
.	.	8aa/)	.	.	.
(4g 4c#X 4G\	.	(8aa/	&(2a\	.	<
.	.	8ee/	.	.	.
*Xped	*	*	*	*	*
4f 4c# 4G\)	.	8ff/	.	.	.
.	.	8aa/J	.	.	.
*	*	*v	*v	*	*
=83	=83	=83	=83	=83
*ped	*	*	*	*
4AA 4DD/	.	2bbn 2bn~\&)	.	[
(4g 4d 4A\	.	.	.	.
4f 4d 4A\)	.	4bb 4b~\)	.	.
!!LO:LB:g=original
=84	=84	=84	=84	=84
*	*	*^	*	*
4AA 4DD/	.	(8ff/L	4re	.	.
.	.	8aa/)	.	.	.
(4g 4c#X 4G\	.	(8aa/	(2a\	.	.
.	.	8ee/	.	.	.
4f 4c# 4G\)	.	8gg/	.	.	.
.	.	8ee-/J	.	.	.
=85	=85	=85	=85	=85	=85
4AA 4DD/	.	4.dd/)	(8f\L)	.	<
.	.	.	8a\J	.	.
(4g 4d 4A\	.	.	[2bn\)	.	[
!	!	!	!	!	!LO:HP:a
.	.	(8ff/L	.	.	<
4f 4d 4A\)	.	8aa/	.	.	.
.	.	8bbn/J	.	.	[
=86	=86	=86	=86	=86	=86
4AA 4DD/	.	8aa/L	2b\]	.	.
.	.	8ee/	.	.	.
(4g 4c#X 4G\	.	8ee/	.	.	.
.	.	8gg/	.	.	.
4f 4c# 4G\)	.	8gg/	4b-X\	.	.
.	.	8ee-X/J	.	.	.
=87	=87	=87	=87	=87	=87
4AA 4DD/	.	4.dd/)	(8f\L	.	<
.	.	.	8a\J	.	.
!	!	!	!LO:TX:t=P:problem:brak początku ligatury	!	!
(4g 4d 4A\	.	.	[2bn\)	.	[
!	!	!	!	!	!LO:HP:a
.	.	(8ff/L	.	.	<
4f 4d 4A\)	.	8aa/	.	.	.
.	.	8bbn/J	.	.	[
!!LO:PB:g=original
=88	=88	=88	=88	=88	=88
4AA 4DD/	.	8aa/L	2b\]	.	.
.	.	8ee/	.	.	.
(4g 4c#X 4G\	.	8ee/	.	.	.
.	.	8gg/	.	.	.
4f 4c# 4G\)	.	8gg/	4b-X\	.	.
.	.	8ee-X/J	.	.	.
=89	=89	=89	=89	=89	=89
4AA 4DD/	.	4.dd/)	(8f\L	.	<
.	.	.	8a\J	.	.
(4g 4d 4A\	.	.	2bn\)	.	[
.	.	(8ff/L	.	.	.
4f 4d 4A\)	.	8aa/	.	.	.
.	.	8bbn/J)	.	.	.
=90	=90	=90	=90	=90	=90
4AA 4DD/	.	(8ddd/L	4dd^\	.	.
.	.	8ccc#X/J	.	.	.
(4g 4d 4A\	.	4aa/)	4dd^\	.	.
4f 4d 4A\)	.	(8aa/L	4dd^\	.	.
.	.	8bbn/J)	.	.	.
=91	=91	=91	=91	=91	=91
!	!	!	!	!	!LO:HP:t=molto cresc.
4AA 4DD/	.	(8ddd/L	4dd\	.	<
.	.	8ccc#X/)	.	.	.
(4g 4d 4A\	.	(8ccc#/	4dd\	.	.
.	.	8aa/)	.	.	.
4f 4d 4A\)	.	(8aa/	4dd\	.	.
.	.	8bbn/J)	.	.	.
*	*	*v	*v	*	*
!!LO:LB:g=original
=92	=92	=92	=92	=92
*^	*	*	*	*
4AA 4DD/	4ryy	.	(8dddL 8dd\	5	<
.	.	.	8ccc#X 8cc#X\	4	.
(8g/L	4d 4A\	1	8eee 8ee\	.	.
8f/J	.	2	8dddJ 8dd\	.	.
4a/)	4d 4A\	1	[4fff [4ff\)	.	.
=93	=93	=93	=93	=93	=93
*ped	*	*	*	*	*
4BB- 4BBB-/	4ryy	.	8fff]L 8ff\]	.	.
.	.	.	(8eee 8ee\	.	.
(8e-X/L	4B- 4F\	.	8ggg 8gg\	.	.
8d-X/J	.	.	8fffJ 8ff\	.	.
*Xped	*	*	*	*	*
4f/)	4d- 4B- 4F\	.	[4aaa [4aa\)	.	.
=94	=94	=94	=94	=94	=94
*ped	*	*	*	*	*
4FF 4FFF/	4ryy	.	8aaa]L 8aa\]	.	.
*	*	*	*8va	*	*
.	.	.	(8aaa 8aa\	5	.
(8d::/L	4A:: 4F:: 4C::\	1	8bbb- 8bb-\	4	.
8c/J	.	1	8aaaJ 8aa\	5	.
*Xped	*	*	*	*	*
4A/)	4F 4C\	2	[4cccc [4ccc\)	.	.
=95	=95	=95	=95	=95	=95
*ped	*	*	*	*	*
4EE-X 4EEE-X/	4ryy	.	8cccc]L 8ccc\]	.	.
.	.	.	(8aaa 8aa\	.	.
(8g/L	2A 2G\	1	8bbb- 8bb-\	.	.
8f/	.	1	8aaaJ 8aa\	.	.
8c#X/	.	2	[4cccc#X [4ccc#X\)	.	.
*Xped	*	*	*	*	*
8A/J)	.	4	.	.	.
!!LO:LB:g=original
=96	=96	=96	=96	=96	=96
*ped	*	*	*	*	*
!!LO:TX:a:i:t=allargando
4EE-X 4EEE-X/	4ryy	.	8cccc#]L 8ccc#\]	.	.
.	.	.	(8aaa 8aa\	.	.
(8g/L	2A 2G\	.	8bbb- 8bb-\	.	.
8f/	.	.	8aaaJ 8aa\	.	.
8c#X/	.	.	4cccc#X 4ccc#X\)	.	.
8A/J)	.	.	.	.	.
*Xped	*	*	*	*	*
*v	*v	*	*	*	*
=97	=97	=97	=97	=97
*ped	*	*	*	*
!!LO:TX:a:i:t=più lento, con forza
4DD 4DDD/	.	(2dddd 2aaa 2fff 2ddd\	.	ff >
4f 4d 4A 4F\	.	.	.	.
*Xped	*	*	*	*
4AA 4DD/	.	4aaa 4fff 4ddd 4aa\)	.	.
.	.	.	.	]
=98	=98	=98	=98	=98
*	*	*^	*	*
*ped	*	*	*	*	*
4e 4c 4A 4E\	.	2.eee 2.ccc/	(>8aaaL 8aa\	.	<
.	.	.	8bbb-J 8bb-\)	.	.
.	.	.	.	.	[
4AA 4DD/	.	.	2aaa 2aa\	.	>
*Xped	*	*	*	*	*
4e 4c 4A 4E\	.	.	.	.	]
*	*	*v	*v	*	*
*	*	*X8va	*	*
=99	=99	=99	=99	=99
*	*	*^	*	*
*ped	*	*	*	*	*
4f 4d 4A 4F\	.	4aa/	(>8fffL 8ff\	.	>
.	.	.	8eeeJ 8ee\	.	.
4AA 4DD/	.	2aa/	4ddd 4dd\	.	.
*Xped	*	*	*	*	*
4f 4d 4A 4F\	.	.	8ccc#XL 8cc#X\	4	]
.	.	.	8dddJ 8dd\)	5	.
!!LO:LB:g=original
=100	=100	=100	=100	=100	=100
*ped	*	*	*	*	*
!!LO:TX:a:i:t=accel.
!	!	!	!LO:TX:t=P:problem:początek łuku w poprzednim takcie (?)	!	!
4g 4c#X 4A 4G\	.	(8aa/L	2bn\	5	f
.	.	.	.	.	>
.	.	8ee/	.	2	.
4AA 4DD/	.	8ee/	.	3	.
.	.	8gg/	.	5	.
*Xped	*	*	*	*	*
4g 4c# 4A 4G\	.	8gg/	4b-X\	.	.
.	.	8ee-X/J)	.	.	.
*	*	*v	*v	*	*
=101	=101	=101	=101	=101
*ped	*	*	*	*
!!LO:TX:a:B:t=Tempo I.
4f 4d 4A 4F\	.	(2dd\	.	mf
.	.	.	.	>
4AA 4DD/	.	.	.	.
4f 4d 4A 4F\	.	4a/	.	.
*Xped	*	*	*	*
.	.	.	.	]
=102	=102	=102	=102	=102
*ped	*	*	*	*
4AA 4DD/	.	8a/L	.	<
.	.	8b-/J	.	[
4e 4c 4G\	.	2a/)	.	>
4AA 4DD/	.	.	.	.
.	.	.	.	]
*Xped	*	*	*	*
=103	=103	=103	=103	=103
*ped	*	*	*	*
4f 4d 4A 4F\	.	(2dd\	.	>
4AA 4DD/	.	.	.	.
4f 4d 4A 4F\	.	4a/	.	]
*Xped	*	*	*	*
=104	=104	=104	=104	=104
*ped	*	*	*	*
4AA 4DD/	.	8a/L	.	<
.	.	8b-/J	.	[
4e 4c 4G\	.	2a/)	.	>
4AA 4DD/	.	.	.	.
.	.	.	.	]
*Xped	*	*	*	*
!!LO:LB:g=original
=105	=105	=105	=105	=105
*M5/4	*	*M5/4	*	*
*ped	*	*	*	*
!!LO:TX:a:B:t=Presto. [quarter] = precipitando
4.F 4.AA 4.DD;/	.	4.dd 4.d;/	.	sffz
8r	.	8cc#X\	.	.
*Xped	*below	*	*below	*
8r	.	(>8a/L	1	ff
(8cn\L	1	8ccn/	3	.
8Bn\	2	8bn/	2	.
8G\	4	8g/	1	.
8B-X\	2	8b-X/	3	.
8A\J	3	8a/J	2	.
=106	=106	=106	=106	=106
*M3/4	*	*M3/4	*	*
8F/L	1	8f/L	1	.
8E-X/	2	8e-X/	3	.
8C#X/	3	8c#X/	2	.
8AA/J)	5	8A/J)	1	.
4r	.	4r	.	.
=107	=107	=107	=107	=107
*ped	*	*	*	*
4EE-X 4EEE-X/	.	2a 2e-X 2B-^>/	.	ff
4G 4E-X 4BB-\	.	.	.	.
4EE- 4EEE-/	.	[4a [4e- [4B-^>/	.	.
=108	=108	=108	=108	=108
4G 4E-X 4BB-\	.	4a] 4e-] 4B-/]	.	.
*Xped	*	*	*	*
4EE-X 4EEE-X/	.	4a 4e-X 4B-^>/	.	.
*ped	*	*	*	*
4AA 4AAA/	.	4f 4c#X 4G^>/	.	.
*Xped	*	*	*	*
=109	=109	=109	=109	=109
*ped	*	*	*	*
4DD 4DDD/	.	4d 4A 4F^>/	.	.
*Xped	*	*	*	*
4r	.	4r	.	.
4r	.	4r	.	.
==	==	==	==	==
*-	*-	*-	*-	*-
!!!system-decoration: {(g1)}
!!!RDF**kern: i = editorial accidental
!!!RDF**kern: > = above
!!!RDF**kern: < = below
!!!RDF**kern: N = linked
!!!RDF**dynam: > = "dim.", fontstyle= "italic"
!!!ENC: Filip Voros
!!!EED: Katarzyna Serwa
!!!END: 2023-10-16
!!!EEV: 2023-11-04
